assets/dude/We–Dolly.svg

<svg width="244" height="112" viewBox="0 0 244 112" fill="none" xmlns="http://www.w3.org/2000/svg">
<path d="M136.543 6.01989C132.343 6.01989 128.703 7.97989 126.323 11.0599C125.343 12.3199 125.063 13.8599 124.643 13.8599C124.223 13.8599 123.943 12.3199 122.963 11.0599C120.583 7.97989 116.943 6.01989 112.743 6.01989C105.463 6.01989 100.563 11.8999 100.563 19.1799C100.563 24.6399 103.923 27.2999 103.923 40.7399C103.923 41.4399 104.483 41.9999 105.183 41.9999H120.583C121.143 41.9999 121.423 42.2799 121.423 42.5599C121.423 42.9799 121.003 43.8199 121.003 43.8199L110.223 67.8999C109.523 69.2999 108.963 69.7199 108.263 69.7199H95.8028C95.1028 69.7199 94.5428 69.2999 93.7028 67.7599L83.0628 43.8199C83.0628 43.8199 82.6428 42.9799 82.6428 42.5599C82.6428 42.2799 82.9228 41.9999 83.4828 41.9999H93.7028C94.4028 41.9999 94.9628 41.4399 94.9628 40.7399C94.9628 27.2999 98.3228 24.6399 98.3228 19.1799C98.3228 11.8999 93.4228 6.01989 86.1428 6.01989C81.9428 6.01989 78.5828 7.97989 76.2028 11.0599C75.2228 12.3199 74.9428 13.8599 74.5228 13.8599C74.1028 13.8599 73.8228 12.3199 72.8428 11.0599C70.4628 7.97989 67.1028 6.01989 62.9028 6.01989C55.6228 6.01989 50.7228 11.8999 50.7228 19.1799C50.7228 24.6399 54.0828 27.2999 54.0828 40.7399C54.0828 41.4399 54.6428 41.9999 55.3428 41.9999H67.6628C68.2228 41.9999 68.5028 42.2799 68.5028 42.5599C68.5028 42.9799 68.0828 43.8199 68.0828 43.8199L57.3028 67.8999C56.6028 69.2999 56.0428 69.7199 55.3428 69.7199H42.8828C42.1828 69.7199 41.6228 69.2999 40.7828 67.7599L30.1428 43.8199C30.1428 43.8199 29.7228 42.9799 29.7228 42.5599C29.7228 42.2799 30.0028 41.9999 30.5628 41.9999H43.8628C44.5628 41.9999 45.1228 41.4399 45.1228 40.7399C45.1228 27.2999 48.4828 24.6399 48.4828 19.1799C48.4828 11.8999 43.5828 6.01989 36.3028 6.01989C32.1028 6.01989 28.4628 7.97989 26.0828 11.0599C25.1028 12.3199 24.8228 13.8599 24.4028 13.8599C23.9828 13.8599 23.7028 12.3199 22.7228 11.0599C20.3428 7.97989 16.7028 6.01989 12.5028 6.01989C5.22275 6.01989 0.322754 11.8999 0.322754 19.1799C0.322754 24.6399 3.68275 27.2999 3.68275 40.7399C3.68275 41.4399 4.24275 41.9999 4.94275 41.9999H13.2028C13.9028 41.9999 14.6028 42.5599 15.1628 43.8199L42.1828 104.86C42.4628 105.42 43.7228 107.52 46.6628 107.52C49.3228 107.52 50.7228 105.42 51.0028 104.86L71.5828 58.7999C71.5828 58.7999 72.2828 56.9799 73.1228 56.9799C73.9628 56.9799 74.6628 58.7999 74.6628 58.7999L95.1028 104.86C95.3828 105.42 96.6428 107.52 99.5828 107.52C102.243 107.52 103.643 105.42 103.923 104.86L131.083 43.8199C131.643 42.5599 132.343 41.9999 133.043 41.9999H144.103C144.803 41.9999 145.363 41.4399 145.363 40.7399C145.363 27.2999 148.723 24.6399 148.723 19.1799C148.723 11.8999 143.823 6.01989 136.543 6.01989Z" fill="#FF1C31"/>
<path d="M240.261 63.8399C240.261 63.1399 239.701 62.5799 239.001 62.5799H231.721C231.021 62.5799 230.461 63.1399 230.461 63.8399C230.461 67.3399 227.661 69.7199 224.161 69.7199H184.821C184.121 69.7199 183.561 69.1599 183.561 68.4599V60.8999C183.561 60.1999 184.121 59.6399 184.821 59.6399H196.581C197.281 59.6399 197.841 60.1999 197.841 60.8999V62.1599C197.841 62.8599 198.401 63.4199 199.101 63.4199H218.001C218.701 63.4199 219.261 62.8599 219.261 62.1599V49.5599C219.261 48.8599 218.701 48.2999 218.001 48.2999H199.101C198.401 48.2999 197.841 48.8599 197.841 49.5599V50.8199C197.841 51.5199 197.281 52.0799 196.581 52.0799H184.821C184.121 52.0799 183.561 51.5199 183.561 50.8199V43.2599C183.561 42.5599 184.121 41.9999 184.821 41.9999H224.161C227.661 41.9999 230.461 44.3799 230.461 47.8799C230.461 48.5799 231.021 49.1399 231.721 49.1399H239.001C239.701 49.1399 240.261 48.5799 240.261 47.8799V40.7399C240.261 27.2999 243.621 24.6399 243.621 19.1799C243.621 11.8999 238.021 6.01989 230.741 6.01989C226.541 6.01989 222.901 7.97989 220.521 11.0599C219.541 12.3199 219.261 13.8599 218.841 13.8599C218.421 13.8599 217.861 12.3199 217.161 11.0599C215.201 7.55989 209.601 0.139893 198.681 0.139893C187.761 0.139893 182.161 7.55989 180.201 11.0599C179.501 12.3199 178.941 13.8599 178.521 13.8599C178.101 13.8599 177.821 12.3199 176.841 11.0599C174.461 7.97989 170.821 6.01989 166.621 6.01989C159.341 6.01989 153.741 11.8999 153.741 19.1799C153.741 24.6399 157.101 27.2999 157.101 40.7399C157.101 41.4399 157.661 41.9999 158.361 41.9999H172.221C172.921 41.9999 173.481 42.5599 173.481 43.2599V68.4599C173.481 69.1599 172.921 69.7199 172.221 69.7199H158.361C157.661 69.7199 157.101 70.2799 157.101 70.9799C157.101 84.4199 153.741 87.0799 153.741 92.5399C153.741 99.8199 159.341 105.7 166.621 105.7C170.821 105.7 174.461 103.74 176.841 100.66C177.821 99.3999 178.101 97.8599 178.521 97.8599C178.941 97.8599 179.501 99.3999 180.201 100.66C182.161 104.16 187.761 111.58 198.681 111.58C209.601 111.58 215.201 104.16 217.161 100.66C217.861 99.3999 218.421 97.8599 218.841 97.8599C219.261 97.8599 219.541 99.3999 220.521 100.66C222.901 103.74 226.541 105.7 230.741 105.7C238.021 105.7 243.621 99.8199 243.621 92.5399C243.621 87.0799 240.261 84.4199 240.261 70.9799V63.8399Z" fill="#FF1C31"/>
</svg>

<svg xmlns="http://www.w3.org/2000/svg" fill="none" viewBox="0 0 244 112"><path fill="#FF1C31" d="M136.543 6.02c-4.2 0-7.84 1.96-10.22 5.04-.98 1.26-1.26 2.8-1.68 2.8-.42 0-.7-1.54-1.68-2.8-2.38-3.08-6.02-5.04-10.22-5.04-7.28 0-12.18 5.88-12.18 13.16 0 5.46 3.36 8.12 3.36 21.56 0 .7.56 1.26 1.26 1.26h15.4c.56 0 .84.28.84.56 0 .42-.42 1.26-.42 1.26l-10.78 24.08c-.7 1.4-1.26 1.82-1.96 1.82h-12.46c-.7 0-1.26-.42-2.1-1.96l-10.64-23.94s-.42-.84-.42-1.26c0-.28.28-.56.84-.56h10.22c.7 0 1.26-.56 1.26-1.26 0-13.44 3.36-16.1 3.36-21.56 0-7.28-4.9-13.16-12.18-13.16-4.2 0-7.56 1.96-9.94 5.04-.98 1.26-1.26 2.8-1.68 2.8-.42 0-.7-1.54-1.68-2.8-2.38-3.08-5.74-5.04-9.94-5.04-7.28 0-12.18 5.88-12.18 13.16 0 5.46 3.36 8.12 3.36 21.56 0 .7.56 1.26 1.26 1.26h12.32c.56 0 .84.28.84.56 0 .42-.42 1.26-.42 1.26L57.303 67.9c-.7 1.4-1.26 1.82-1.96 1.82h-12.46c-.7 0-1.26-.42-2.1-1.96l-10.64-23.94s-.42-.84-.42-1.26c0-.28.28-.56.84-.56h13.3c.7 0 1.26-.56 1.26-1.26 0-13.44 3.36-16.1 3.36-21.56 0-7.28-4.9-13.16-12.18-13.16-4.2 0-7.84 1.96-10.22 5.04-.98 1.26-1.26 2.8-1.68 2.8-.42 0-.7-1.54-1.68-2.8-2.38-3.08-6.02-5.04-10.22-5.04-7.28 0-12.18 5.88-12.18 13.16 0 5.46 3.36 8.12 3.36 21.56 0 .7.56 1.26 1.26 1.26h8.26c.7 0 1.4.56 1.96 1.82l27.02 61.04c.28.56 1.54 2.66 4.48 2.66 2.66 0 4.06-2.1 4.34-2.66l20.58-46.06s.7-1.82 1.54-1.82c.84 0 1.54 1.82 1.54 1.82l20.44 46.06c.28.56 1.54 2.66 4.48 2.66 2.66 0 4.06-2.1 4.34-2.66l27.16-61.04c.56-1.26 1.26-1.82 1.96-1.82h11.06c.7 0 1.26-.56 1.26-1.26 0-13.44 3.36-16.1 3.36-21.56 0-7.28-4.9-13.16-12.18-13.16zM240.261 63.84c0-.7-.56-1.26-1.26-1.26h-7.28c-.7 0-1.26.56-1.26 1.26 0 3.5-2.8 5.88-6.3 5.88h-39.34c-.7 0-1.26-.56-1.26-1.26V60.9c0-.7.56-1.26 1.26-1.26h11.76c.7 0 1.26.56 1.26 1.26v1.26c0 .7.56 1.26 1.26 1.26h18.9c.7 0 1.26-.56 1.26-1.26v-12.6c0-.7-.56-1.26-1.26-1.26h-18.9c-.7 0-1.26.56-1.26 1.26v1.26c0 .7-.56 1.26-1.26 1.26h-11.76c-.7 0-1.26-.56-1.26-1.26v-7.56c0-.7.56-1.26 1.26-1.26h39.34c3.5 0 6.3 2.38 6.3 5.88 0 .7.56 1.26 1.26 1.26h7.28c.7 0 1.26-.56 1.26-1.26v-7.14c0-13.44 3.36-16.1 3.36-21.56 0-7.28-5.6-13.16-12.88-13.16-4.2 0-7.84 1.96-10.22 5.04-.98 1.26-1.26 2.8-1.68 2.8-.42 0-.98-1.54-1.68-2.8-1.96-3.5-7.56-10.92-18.48-10.92-10.92 0-16.52 7.42-18.48 10.92-.7 1.26-1.26 2.8-1.68 2.8-.42 0-.7-1.54-1.68-2.8-2.38-3.08-6.02-5.04-10.22-5.04-7.28 0-12.88 5.88-12.88 13.16 0 5.46 3.36 8.12 3.36 21.56 0 .7.56 1.26 1.26 1.26h13.86c.7 0 1.26.56 1.26 1.26v25.2c0 .7-.56 1.26-1.26 1.26h-13.86c-.7 0-1.26.56-1.26 1.26 0 13.44-3.36 16.1-3.36 21.56 0 7.28 5.6 13.16 12.88 13.16 4.2 0 7.84-1.96 10.22-5.04.98-1.26 1.26-2.8 1.68-2.8.42 0 .98 1.54 1.68 2.8 1.96 3.5 7.56 10.92 18.48 10.92 10.92 0 16.52-7.42 18.48-10.92.7-1.26 1.26-2.8 1.68-2.8.42 0 .7 1.54 1.68 2.8 2.38 3.08 6.02 5.04 10.22 5.04 7.28 0 12.88-5.88 12.88-13.16 0-5.46-3.36-8.12-3.36-21.56v-7.14z"/></svg>
